X:1
T:Álvastakkur
C:Kristian Blak, arr. Laurel North
R:Waltz
M:3/4
K:F
FG |:[M:3/4]"F" A2 AG Fd |"A" c2 cA DA |"B" !arpeggio![DFG]2 GF Fc |"F" A4 Ac |"B" d f2 d2 G | 
"D" AG F2 FG |"G" A c2 A GF |1"C" G3 G"B" FG :|2"C" G3 G"^Am" AG |:"D" Ff !arpeggio![FAf]2 [Dd]2 | 
"A" [Cc]A A3 G |"B" A2 c2 df | g3 a gf |"F" dc A3 G |"G" A =B3 AG |"G" cd G2"C" D[B,F] |1 
"F" [CF] z z2 AG :|2"F" F6 |] 

